assets/Drooling face/Flat/drooling_face_flat.svg

<svg width="32" height="32" viewBox="0 0 32 32" fill="none" xmlns="http://www.w3.org/2000/svg">
<path d="M15.9989 29.9978C25.3333 29.9978 29.9978 23.7303 29.9978 15.9989C29.9978 8.26751 25.3333 2 15.9989 2C6.66443 2 2 8.26751 2 15.9989C2 23.7303 6.66443 29.9978 15.9989 29.9978Z" fill="#FFB02E"/>
<path d="M8.06927 8.98761C7.47637 9.55049 7.11781 10.2277 6.97436 10.6581C6.88703 10.9201 6.60387 11.0617 6.3419 10.9743C6.07993 10.887 5.93835 10.6039 6.02567 10.3419C6.21555 9.77226 6.65699 8.94951 7.38076 8.26239C8.11302 7.5672 9.14792 7 10.5 7C10.7762 7 11 7.22386 11 7.5C11 7.77614 10.7762 8 10.5 8C9.45211 8 8.65367 8.4328 8.06927 8.98761Z" fill="#402A32"/>
<path d="M8.98157 13.1909C9.02965 12.9436 9.13972 12.6405 9.34897 12.4125C9.5283 12.2171 9.847 12 10.5 12C11.1417 12 11.4685 12.2216 11.6572 12.4288C11.8753 12.6683 11.9804 12.9737 12.0147 13.1711C12.1092 13.7152 12.6269 14.0797 13.171 13.9853C13.7152 13.8908 14.0797 13.373 13.9852 12.8289C13.9062 12.374 13.6799 11.6794 13.1357 11.082C12.562 10.4522 11.6955 10 10.5 10C9.31565 10 8.4527 10.4313 7.87553 11.0601C7.32828 11.6564 7.10698 12.3533 7.01834 12.8091C6.91293 13.3513 7.26696 13.8762 7.80909 13.9816C8.35122 14.087 8.87616 13.733 8.98157 13.1909Z" fill="#402A32"/>
<path d="M19.9818 13.1909C20.0299 12.9436 20.14 12.6405 20.3492 12.4125C20.5285 12.2171 20.8472 12 21.5002 12C22.1419 12 22.4687 12.2216 22.6574 12.4288C22.8756 12.6683 22.9807 12.9737 23.0149 13.1711C23.1094 13.7152 23.6272 14.0797 24.1713 13.9853C24.7154 13.8908 25.0799 13.373 24.9855 12.8289C24.9065 12.374 24.6802 11.6794 24.136 11.082C23.5623 10.4522 22.6957 10 21.5002 10C20.3159 10 19.4529 10.4313 18.8758 11.0601C18.3285 11.6564 18.1072 12.3533 18.0186 12.8091C17.9132 13.3513 18.2672 13.8762 18.8093 13.9816C19.3515 14.087 19.8764 13.733 19.9818 13.1909Z" fill="#402A32"/>
<path d="M25.0257 10.6581C24.8822 10.2277 24.5237 9.55049 23.9308 8.98761C23.3464 8.4328 22.5479 8 21.5 8C21.2239 8 21 7.77614 21 7.5C21 7.22386 21.2239 7 21.5 7C22.8521 7 23.887 7.5672 24.6193 8.26239C25.343 8.94951 25.7845 9.77226 25.9744 10.3419C26.0617 10.6039 25.9201 10.887 25.6581 10.9743C25.3962 11.0617 25.113 10.9201 25.0257 10.6581Z" fill="#402A32"/>
<path d="M9 18H23C23 18 23 20.1847 21.7795 22.1131H10.2205C9 20.1847 9 18 9 18Z" fill="#BB1D80"/>
<path d="M16 25C12.8344 25 11.1003 23.5684 10.1505 22H21.8496C21.4165 22.7151 20.8204 23.4017 20 23.9372V26.75C20 27.4404 19.4404 28 18.75 28C18.0596 28 17.5 27.4404 17.5 26.75V26.6667C17.5 26.2985 17.2015 26 16.8333 26H16.75C16.3358 26 16 25.6642 16 25.25V25Z" fill="#5092FF"/>
</svg>

<svg xmlns="http://www.w3.org/2000/svg" width="32" height="32" fill="none"><path fill="#FFB02E" d="M15.999 29.998c9.334 0 13.999-6.268 13.999-14 0-7.73-4.665-13.998-14-13.998C6.665 2 2 8.268 2 15.999c0 7.731 4.664 13.999 13.999 13.999Z"/><path fill="#402A32" d="M8.07 8.988c-.594.562-.952 1.24-1.096 1.67a.5.5 0 1 1-.948-.316c.19-.57.631-1.392 1.355-2.08C8.113 7.567 9.148 7 10.5 7a.5.5 0 1 1 0 1c-1.048 0-1.846.433-2.43.988ZM8.982 13.19c.048-.246.158-.55.367-.777.18-.196.498-.413 1.151-.413.642 0 .969.222 1.157.429.218.24.323.545.358.742a1 1 0 0 0 1.97-.342 3.544 3.544 0 0 0-.85-1.747C12.563 10.452 11.696 10 10.5 10c-1.184 0-2.047.431-2.624 1.06-.548.596-.769 1.293-.858 1.75a1 1 0 1 0 1.964.38ZM19.982 13.19c.048-.246.158-.55.367-.777.18-.196.498-.413 1.151-.413.642 0 .969.222 1.157.429.219.24.324.545.358.742a1 1 0 0 0 1.97-.342 3.544 3.544 0 0 0-.849-1.747C23.562 10.452 22.696 10 21.5 10c-1.184 0-2.047.431-2.624 1.06-.548.596-.769 1.293-.857 1.75a1 1 0 1 0 1.963.38ZM25.026 10.658c-.144-.43-.502-1.108-1.095-1.67C23.346 8.433 22.548 8 21.5 8a.5.5 0 0 1 0-1c1.352 0 2.387.567 3.12 1.262.723.688 1.165 1.51 1.354 2.08a.5.5 0 0 1-.948.316Z"/><path fill="#BB1D80" d="M9 18h14s0 2.185-1.22 4.113H10.22C9 20.185 9 18 9 18Z"/><path fill="#5092FF" d="M16 25c-3.166 0-4.9-1.432-5.85-3h11.7A5.984 5.984 0 0 1 20 23.937v2.813a1.25 1.25 0 1 1-2.5 0v-.083a.667.667 0 0 0-.667-.667h-.083a.75.75 0 0 1-.75-.75V25Z"/></svg>
